packages/core/src/svgs/tokens/mono/PICA.svg

<svg width="24" height="24" viewBox="0 0 24 24" fill="none" xmlns="http://www.w3.org/2000/svg">
<path fill-rule="evenodd" clip-rule="evenodd" d="M10.5715 2H2V22H10.5715V14.8285C11.6428 15.3072 12.8572 15.5715 14.1428 15.5715C18.4857 15.5715 22 12.5357 22 8.78567C22 5.03572 18.4857 2 14.1428 2C12.8572 2 11.6428 2.26428 10.5715 2.74285V2ZM14.1428 14.8572C12.8428 14.8572 11.6215 14.5643 10.5715 14.0428V3.52857C11.684 2.98775 12.9058 2.70918 14.1428 2.71428C18.0857 2.71428 21.2857 5.42857 21.2857 8.78567C21.2857 12.1428 18.0857 14.8572 14.1428 14.8572ZM7 8.78567C7 10.7715 8.12143 12.5357 9.85717 13.6428V3.92857C8.12143 5.03572 7 6.8 7 8.78567ZM6.28572 8.78567C6.28572 6.40715 7.70715 4.30715 9.85717 3.1V2.71428H2.71428V21.2857H9.85717V14.4715C7.70715 13.2572 6.28572 11.1643 6.28572 8.78567ZM22 15.5715V22C20.0285 22 18.4285 20.5643 18.4285 18.7857C18.4285 17.0072 20.0285 15.5715 22 15.5715Z" fill="white"/>
</svg>

<svg xmlns="http://www.w3.org/2000/svg" width="24" height="24" fill="none" viewBox="0 0 24 24">
    <path fill="#fff" fill-rule="evenodd" d="M10.572 2H2v20h8.572v-7.171a8.75 8.75 0 0 0 3.57.742c4.344 0 7.858-3.035 7.858-6.785S18.486 2 14.143 2c-1.286 0-2.5.264-3.572.743zm3.57 12.857a8 8 0 0 1-3.57-.814V3.529a8.1 8.1 0 0 1 3.57-.815c3.944 0 7.144 2.715 7.144 6.072s-3.2 6.071-7.143 6.071M7 8.786c0 1.986 1.121 3.75 2.857 4.857V3.929C8.121 5.036 7 6.8 7 8.786m-.714 0c0-2.379 1.421-4.479 3.571-5.686v-.386H2.714v18.572h7.143V14.47c-2.15-1.214-3.571-3.307-3.571-5.685M22 15.572V22c-1.971 0-3.572-1.436-3.572-3.214s1.6-3.215 3.572-3.215" clip-rule="evenodd"/>
</svg>
